SF_Symbols/metronome.fill.svg

<?xml version="1.0" encoding="UTF-8"?>
<svg xmlns="http://www.w3.org/2000/svg" xmlns:xlink="http://www.w3.org/1999/xlink" width="24" height="24" viewBox="0 0 24 24" version="1.1">
<g id="surface1">
<path style=" stroke:none;fill-rule:nonzero;fill:rgb(100%,100%,100%);fill-opacity:1;" d="M 3.890625 23.566406 L 20.109375 23.566406 C 20.796875 23.566406 21.382812 23.421875 21.867188 23.132812 C 22.359375 22.84375 22.734375 22.457031 22.992188 21.972656 C 23.257812 21.496094 23.390625 20.976562 23.390625 20.414062 C 23.390625 19.804688 23.238281 19.191406 22.933594 18.574219 L 22.570312 17.882812 L 1.429688 17.882812 L 1.066406 18.585938 C 0.761719 19.179688 0.609375 19.789062 0.609375 20.414062 C 0.609375 20.976562 0.738281 21.496094 0.996094 21.972656 C 1.261719 22.457031 1.636719 22.84375 2.121094 23.132812 C 2.613281 23.421875 3.203125 23.566406 3.890625 23.566406 Z M 2.238281 16.289062 L 8.308594 16.289062 L 4.289062 12.269531 Z M 10.054688 16.289062 L 12.714844 16.289062 L 2.613281 6.1875 C 2.417969 5.992188 2.199219 5.894531 1.957031 5.894531 C 1.714844 5.894531 1.492188 5.992188 1.289062 6.1875 C 1.078125 6.390625 0.976562 6.617188 0.984375 6.867188 C 0.992188 7.109375 1.09375 7.332031 1.289062 7.535156 Z M 14.542969 16.289062 L 21.761719 16.289062 L 14.789062 2.613281 C 14.523438 2.082031 14.128906 1.660156 13.605469 1.347656 C 13.082031 1.027344 12.546875 0.867188 12 0.867188 C 11.453125 0.867188 10.917969 1.027344 10.394531 1.347656 C 9.871094 1.660156 9.476562 2.082031 9.210938 2.613281 L 6.386719 8.144531 L 11.121094 12.867188 L 11.121094 6.503906 C 11.121094 6.214844 11.203125 5.984375 11.367188 5.8125 C 11.53125 5.632812 11.757812 5.542969 12.046875 5.542969 C 12.335938 5.542969 12.5625 5.632812 12.726562 5.8125 C 12.898438 5.984375 12.984375 6.214844 12.984375 6.503906 L 12.984375 14.71875 Z M 14.542969 16.289062 "/>
</g>
</svg>

<svg xmlns="http://www.w3.org/2000/svg" width="24" height="24"><path style="stroke:none;fill-rule:nonzero;fill:#fff;fill-opacity:1" d="M3.89 23.566h16.22c.687 0 1.273-.144 1.757-.433.492-.29.867-.676 1.125-1.16.266-.477.399-.996.399-1.559 0-.61-.153-1.223-.457-1.84l-.364-.691H1.43l-.364.703a3.973 3.973 0 0 0-.457 1.828c0 .563.13 1.082.387 1.559.266.484.64.87 1.125 1.16.492.289 1.082.433 1.77.433ZM2.239 16.29h6.07L4.29 12.27Zm7.817 0h2.66L2.613 6.187c-.195-.195-.414-.292-.656-.292-.242 0-.465.097-.668.293-.21.203-.312.43-.305.68.008.241.11.464.305.667Zm4.488 0h7.219L14.789 2.613a3.032 3.032 0 0 0-1.184-1.265c-.523-.32-1.058-.48-1.605-.48-.547 0-1.082.16-1.605.48A3.032 3.032 0 0 0 9.21 2.613L6.387 8.145l4.734 4.722V6.504c0-.29.082-.52.246-.691.164-.18.39-.27.68-.27.289 0 .515.09.68.27.171.171.257.402.257.69v8.216Zm0 0"/></svg>
